public/img/polygon.svg

<svg width="169" height="191" viewBox="0 0 169 191" fill="none" xmlns="http://www.w3.org/2000/svg">
<path d="M80.5 1.3094C82.9752 -0.119661 86.0248 -0.119661 88.5 1.3094L164.071 44.9406C166.547 46.3697 168.071 49.0107 168.071 51.8688V139.131C168.071 141.989 166.547 144.63 164.071 146.059L88.5 189.691C86.0248 191.12 82.9752 191.12 80.5 189.691L4.92855 146.059C2.45334 144.63 0.928551 141.989 0.928551 139.131V51.8688C0.928551 49.0107 2.45334 46.3697 4.92855 44.9406L80.5 1.3094Z" fill="url(#paint0_linear_35_102)"/>
<defs>
<linearGradient id="paint0_linear_35_102" x1="159.833" y1="121.406" x2="-30.5" y2="245.5" gradientUnits="userSpaceOnUse">
<stop stop-color="white"/>
<stop offset="1" stop-color="#CACACA"/>
</linearGradient>
</defs>
</svg>

<svg xmlns="http://www.w3.org/2000/svg" width="169" height="191" fill="none"><path fill="url(#a)" d="M80.5 1.31a8 8 0 0 1 8 0l75.571 43.63c2.476 1.43 4 4.07 4 6.929v87.262a8 8 0 0 1-4 6.928L88.5 189.691a8 8 0 0 1-8 0L4.929 146.059a8 8 0 0 1-4-6.928V51.869a8 8 0 0 1 4-6.928z"/><defs><linearGradient id="a" x1="159.833" x2="-30.5" y1="121.406" y2="245.5" gradientUnits="userSpaceOnUse"><stop stop-color="#fff"/><stop offset="1" stop-color="#CACACA"/></linearGradient></defs></svg>
